X:14
T:The Butlers of Glen Avenue
R:jig
C:Tony Sullivan
O:20st century England (Manchester)
S:Silver Apple News, 2004
D:i.Natalie MacMaster, Blueprint ii.Sully's Fancy (Tony Sullivan, 1980)
B:Sully's Irish Music (Halshaw Music)
Z:Paul Stewart Cranford (P.S.C.), <http://www.cranfordpub.com>
Q:300
L:1/8
M:6/8
K:G
z|DEG EDB,|DEG B3|DEG B2 e|dBe dBG|
DEG EDB,|DEG B3|dBd gfe|[1dBA G2:|[2dba g2:|
|:d|gab age|deg B3|gab gab|dBd e2 d|
gab age|deg B3|dBd gfe|[1dba g2:|[2dBA G2|]
